X: 20541
T: LADY'S TRIUMPH
C:
%R: reel, hornpipe
B: Elias Howe "The Musician's Companion" 1843 p.54 #1
S: http://imslp.org/wiki/The_Musician's_Companion_(Howe,_Elias)
Z: 2015 John Chambers <jc:trillian.mit.edu>
N: The 1st strain is actually just 4 bars, played 4 times.
M: 2/4
L: 1/16
K: D
% - - - - - - - - - - - - - - - - - - - - - - - - -
AG |\
FDAD BDAD | FDAF GEEG | FDAD BDAD | Addc d2 AG |\
FDAD BDAD | FDAF GEEG | FDAD BDAD | Addc d2 :|
|: de |\
fdec dcBA | Aeed e2de | fdec dcBA | Aeed e2de |\
fdec dcBA | Aeed e2d2 | dfed dcBA | Aeec d2 :|
% - - - - - - - - - - - - - - - - - - - - - - - - -

%%sep 1 1 500

